X:590
T: "Entschuldigung"
N: Z1270
O: Europa, Mitteleuropa, Oesterreich
R: Natur und Welt
M: 3/4
L: 1/8
K: G
D2 | DBB2AG | GFFE
F2 | Fcc2BA | AG
GFG2 | Gdd2cB | BAA^GA2 |
Aee2dc | B4

@@@ Tune index: 10348
